docs/img/star_2.svg

<svg width="80" height="79" viewBox="0 0 80 79" fill="none" xmlns="http://www.w3.org/2000/svg">
<path d="M46.6407 21.9227L58.5227 11.1781L53.685 26.4498L52.9462 28.782L55.3599 28.3827L71.1646 25.7676L58.8384 35.9995L56.956 37.5621L59.2023 38.531L73.9119 44.8758L58.0107 46.8194L55.5823 47.1162L56.9482 49.1458L65.8925 62.436L51.4647 55.4741L49.2614 54.4109L49.3132 56.8568L49.6523 72.8729L41.2788 59.2159L40 57.1303L38.7212 59.2159L30.3477 72.8729L30.6868 56.8568L30.7386 54.4109L28.5353 55.4741L14.1075 62.436L23.0518 49.1458L24.4177 47.1162L21.9893 46.8194L6.08807 44.8758L20.7977 38.531L23.044 37.5621L21.1616 35.9995L8.83541 25.7676L24.6401 28.3827L27.0538 28.782L26.315 26.4498L21.4773 11.1781L33.3593 21.9227L35.1738 23.5636L35.8132 21.2022L40 5.73935L44.1868 21.2022L44.8262 23.5636L46.6407 21.9227Z" stroke="#EEDB6D" stroke-width="3"/>
</svg>

<svg width="80" height="79" fill="none" xmlns="http://www.w3.org/2000/svg"><path d="M46.64 21.923l11.883-10.745-4.838 15.272-.739 2.332 2.414-.4 15.805-2.614-12.327 10.231-1.882 1.563 2.246.969 14.71 6.345-15.901 1.943-2.429.297 1.366 2.03 8.944 13.29-14.427-6.962-2.204-1.063.052 2.446.34 16.016-8.374-13.657L40 57.13l-1.279 2.086-8.373 13.657.339-16.016.052-2.446-2.204 1.063-14.428 6.962 8.945-13.29 1.366-2.03-2.429-.297-15.9-1.943 14.709-6.345 2.246-.969L21.162 36 8.835 25.768l15.805 2.615 2.414.399-.739-2.332-4.838-15.272L33.36 21.923l1.815 1.64.64-2.36L40 5.738l4.187 15.463.64 2.362 1.814-1.641z" stroke="#EEDB6D" stroke-width="3"/></svg>
